assets/backendpy_logo.svg

<?xml version="1.0" encoding="UTF-8" standalone="no"?>
<!-- Created with Inkscape (http://www.inkscape.org/) -->

<svg
   xmlns:dc="http://purl.org/dc/elements/1.1/"
   xmlns:cc="http://creativecommons.org/ns#"
   xmlns:rdf="http://www.w3.org/1999/02/22-rdf-syntax-ns#"
   xmlns:svg="http://www.w3.org/2000/svg"
   xmlns="http://www.w3.org/2000/svg"
   xmlns:sodipodi="http://sodipodi.sourceforge.net/DTD/sodipodi-0.dtd"
   xmlns:inkscape="http://www.inkscape.org/namespaces/inkscape"
   width="349.89182mm"
   height="50.000046mm"
   viewBox="0 0 349.89181 50.000046"
   version="1.1"
   id="svg2121"
   inkscape:version="0.92.4 (5da689c313, 2019-01-14)"
   sodipodi:docname="backendpy_logo_2.svg">
  <defs
     id="defs2115" />
  <sodipodi:namedview
     id="base"
     pagecolor="#ffffff"
     bordercolor="#666666"
     borderopacity="1.0"
     inkscape:pageopacity="0.0"
     inkscape:pageshadow="2"
     inkscape:zoom="0.70710678"
     inkscape:cx="581.39388"
     inkscape:cy="77.045906"
     inkscape:document-units="mm"
     inkscape:current-layer="layer1"
     showgrid="false"
     fit-margin-top="0"
     fit-margin-left="0"
     fit-margin-right="0"
     fit-margin-bottom="0"
     inkscape:window-width="1850"
     inkscape:window-height="1016"
     inkscape:window-x="70"
     inkscape:window-y="27"
     inkscape:window-maximized="1" />
  <metadata
     id="metadata2118">
    <rdf:RDF>
      <cc:Work
         rdf:about="">
        <dc:format>image/svg+xml</dc:format>
        <dc:type
           rdf:resource="http://purl.org/dc/dcmitype/StillImage" />
        <dc:title></dc:title>
      </cc:Work>
    </rdf:RDF>
  </metadata>
  <g
     inkscape:label="Layer 1"
     inkscape:groupmode="layer"
     id="layer1"
     transform="translate(82.190506,-122.32143)">
    <path
       style="opacity:1;fill:#121212;fill-opacity:0.94117647;stroke:none;stroke-width:0.18875022;stroke-opacity:0"
       d="m 0,0 v 37.794922 37.794922 37.796876 37.79492 H 37.794922 75.589844 113.38672 V 113.38672 75.589844 37.794922 H 75.589844 37.794922 V 0 Z m 453.54297,0 v 37.794922 37.794922 37.796876 37.79492 h 37.79492 v -37.79492 h 37.79688 V 75.589844 H 491.33789 V 37.794922 0 Z m 75.5918,75.589844 h 37.79492 V 37.794922 h -37.79492 z m 0,37.796876 v 37.79492 h 37.79492 V 113.38672 Z M 982.67773,0 v 37.794922 h -37.79492 -37.79687 v 37.794922 37.796876 37.79492 h 37.79687 37.79492 37.79497 V 113.38672 75.589844 37.794922 0 Z M 151.18164,37.794922 v 37.794922 37.796876 h 37.79492 V 75.589844 h 37.79492 v 37.796876 h -37.79492 v 37.79492 h 37.79492 37.79493 V 113.38672 75.589844 37.794922 h -37.79493 -37.79492 z m 151.18164,0 v 37.794922 37.796876 37.79492 h 37.79492 37.79492 37.79493 V 113.38672 H 377.95312 340.1582 V 75.589844 h 37.79492 37.79493 V 37.794922 H 377.95312 340.1582 Z m 302.36133,0 v 37.794922 37.796876 37.79492 h 37.79492 37.79492 V 113.38672 H 642.51953 V 75.589844 h 37.79492 v 37.796876 h 37.79493 V 75.589844 37.794922 h -37.79493 -37.79492 z m 151.18164,0 v 37.794922 37.796876 37.79492 h 37.79492 V 113.38672 75.589844 h 37.79492 v 37.796876 37.79492 h 37.79493 V 113.38672 75.589844 37.794922 H 831.49609 793.70117 Z M 37.794922,75.589844 H 75.589844 V 113.38672 H 37.794922 Z m 907.087888,0 h 37.79492 v 37.796876 h -37.79492 z"
       transform="matrix(0.26458333,0,0,0.26458333,-82.190506,122.32143)"
       id="rect889-3-3-1"
       inkscape:connector-curvature="0" />
    <path
       style="opacity:1;fill:#34b24f;fill-opacity:0.94117647;stroke:none;stroke-width:0.18875022;stroke-opacity:0"
       d="m 1057.8574,37.794922 v 37.794922 37.796876 37.79492 37.79492 h 37.7969 v -37.79492 h 37.7949 37.7949 V 113.38672 75.589844 37.794922 h -37.7949 -37.7949 z m 151.1817,0 v 37.794922 37.796876 37.79492 h 37.7949 37.7969 v 37.79492 h 37.7949 V 151.18164 113.38672 75.589844 37.794922 h -37.7949 V 75.589844 113.38672 H 1246.834 V 75.589844 37.794922 Z m -113.3848,37.794922 h 37.7949 v 37.796876 h -37.7949 z"
       id="rect889-3-3-1-7-8-77-03"
       transform="matrix(0.26458333,0,0,0.26458333,-82.190506,122.32143)"
       inkscape:connector-curvature="0" />
  </g>
</svg>

<?xml version="1.0" encoding="UTF-8" standalone="no"?>
<!-- Created with Inkscape (http://www.inkscape.org/) -->

<svg
   xmlns:dc="http://purl.org/dc/elements/1.1/"
   xmlns:cc="http://creativecommons.org/ns#"
   xmlns:rdf="http://www.w3.org/1999/02/22-rdf-syntax-ns#"
   xmlns:svg="http://www.w3.org/2000/svg"
   xmlns="http://www.w3.org/2000/svg"
   xmlns:sodipodi="http://sodipodi.sourceforge.net/DTD/sodipodi-0.dtd"
   xmlns:inkscape="http://www.inkscape.org/namespaces/inkscape"
   width="370.00006mm"
   height="50mm"
   viewBox="0 0 370.00006 50"
   version="1.1"
   id="svg2121"
   inkscape:version="0.92.4 (5da689c313, 2019-01-14)"
   sodipodi:docname="logo_mark.svg">
  <defs
     id="defs2115" />
  <sodipodi:namedview
     id="base"
     pagecolor="#ffffff"
     bordercolor="#666666"
     borderopacity="1.0"
     inkscape:pageopacity="0.0"
     inkscape:pageshadow="2"
     inkscape:zoom="0.98994949"
     inkscape:cx="543.12304"
     inkscape:cy="94.774325"
     inkscape:document-units="mm"
     inkscape:current-layer="layer1"
     showgrid="false"
     fit-margin-top="0"
     fit-margin-left="0"
     fit-margin-right="0"
     fit-margin-bottom="0"
     inkscape:window-width="1850"
     inkscape:window-height="1016"
     inkscape:window-x="70"
     inkscape:window-y="27"
     inkscape:window-maximized="1" />
  <metadata
     id="metadata2118">
    <rdf:RDF>
      <cc:Work
         rdf:about="">
        <dc:format>image/svg+xml</dc:format>
        <dc:type
           rdf:resource="http://purl.org/dc/dcmitype/StillImage" />
        <dc:title />
      </cc:Work>
    </rdf:RDF>
  </metadata>
  <g
     inkscape:label="Layer 1"
     inkscape:groupmode="layer"
     id="layer1"
     transform="translate(82.190506,-122.32143)">
    <path
       style="opacity:1;fill:#121212;fill-opacity:0.94117647;stroke:none;stroke-width:0.18875022;stroke-opacity:0"
       d="M 0 0 L 0 37.794922 L 0 75.589844 L 0 113.38672 L 0 151.18164 L 37.794922 151.18164 L 75.589844 151.18164 L 113.38672 151.18164 L 113.38672 113.38672 L 113.38672 75.589844 L 113.38672 37.794922 L 75.589844 37.794922 L 37.794922 37.794922 L 37.794922 0 L 0 0 z M 453.54297 0 L 453.54297 37.794922 L 453.54297 75.589844 L 453.54297 113.38672 L 453.54297 151.18164 L 491.33789 151.18164 L 491.33789 113.38672 L 529.13477 113.38672 L 529.13477 75.589844 L 491.33789 75.589844 L 491.33789 37.794922 L 491.33789 0 L 453.54297 0 z M 529.13477 75.589844 L 566.92969 75.589844 L 566.92969 37.794922 L 529.13477 37.794922 L 529.13477 75.589844 z M 529.13477 113.38672 L 529.13477 151.18164 L 566.92969 151.18164 L 566.92969 113.38672 L 529.13477 113.38672 z M 982.67773 0 L 982.67773 37.794922 L 944.88281 37.794922 L 907.08594 37.794922 L 907.08594 75.589844 L 907.08594 113.38672 L 907.08594 151.18164 L 944.88281 151.18164 L 982.67773 151.18164 L 1020.4727 151.18164 L 1020.4727 113.38672 L 1020.4727 75.589844 L 1020.4727 37.794922 L 1020.4727 0 L 982.67773 0 z M 151.18164 37.794922 L 151.18164 75.589844 L 151.18164 113.38672 L 188.97656 113.38672 L 188.97656 75.589844 L 226.77148 75.589844 L 226.77148 113.38672 L 188.97656 113.38672 L 188.97656 151.18164 L 226.77148 151.18164 L 264.56641 151.18164 L 264.56641 113.38672 L 264.56641 75.589844 L 264.56641 37.794922 L 226.77148 37.794922 L 188.97656 37.794922 L 151.18164 37.794922 z M 302.36328 37.794922 L 302.36328 75.589844 L 302.36328 113.38672 L 302.36328 151.18164 L 340.1582 151.18164 L 377.95312 151.18164 L 415.74805 151.18164 L 415.74805 113.38672 L 377.95312 113.38672 L 340.1582 113.38672 L 340.1582 75.589844 L 377.95312 75.589844 L 415.74805 75.589844 L 415.74805 37.794922 L 377.95312 37.794922 L 340.1582 37.794922 L 302.36328 37.794922 z M 604.72461 37.794922 L 604.72461 75.589844 L 604.72461 113.38672 L 604.72461 151.18164 L 642.51953 151.18164 L 680.31445 151.18164 L 680.31445 113.38672 L 642.51953 113.38672 L 642.51953 75.589844 L 680.31445 75.589844 L 680.31445 113.38672 L 718.10938 113.38672 L 718.10938 75.589844 L 718.10938 37.794922 L 680.31445 37.794922 L 642.51953 37.794922 L 604.72461 37.794922 z M 755.90625 37.794922 L 755.90625 75.589844 L 755.90625 113.38672 L 755.90625 151.18164 L 793.70117 151.18164 L 793.70117 113.38672 L 793.70117 75.589844 L 831.49609 75.589844 L 831.49609 113.38672 L 831.49609 151.18164 L 869.29102 151.18164 L 869.29102 113.38672 L 869.29102 75.589844 L 869.29102 37.794922 L 831.49609 37.794922 L 793.70117 37.794922 L 755.90625 37.794922 z M 37.794922 75.589844 L 75.589844 75.589844 L 75.589844 113.38672 L 37.794922 113.38672 L 37.794922 75.589844 z M 944.88281 75.589844 L 982.67773 75.589844 L 982.67773 113.38672 L 944.88281 113.38672 L 944.88281 75.589844 z "
       transform="matrix(0.26458333,0,0,0.26458333,-82.190506,122.32143)"
       id="rect889-3-3-1" />
    <path
       style="opacity:1;fill:#34b24f;fill-opacity:0.94117647;stroke:none;stroke-width:0.18875022;stroke-opacity:0"
       d="M 1133.8574 37.794922 L 1133.8574 75.589844 L 1133.8574 113.38672 L 1133.8574 151.18164 L 1133.8574 188.97656 L 1171.6543 188.97656 L 1171.6543 151.18164 L 1209.4492 151.18164 L 1247.2441 151.18164 L 1247.2441 113.38672 L 1247.2441 75.589844 L 1247.2441 37.794922 L 1209.4492 37.794922 L 1171.6543 37.794922 L 1133.8574 37.794922 z M 1285.0391 37.794922 L 1285.0391 75.589844 L 1285.0391 113.38672 L 1285.0391 151.18164 L 1322.834 151.18164 L 1360.6309 151.18164 L 1360.6309 188.97656 L 1398.4258 188.97656 L 1398.4258 151.18164 L 1398.4258 113.38672 L 1398.4258 75.589844 L 1398.4258 37.794922 L 1360.6309 37.794922 L 1360.6309 75.589844 L 1360.6309 113.38672 L 1322.834 113.38672 L 1322.834 75.589844 L 1322.834 37.794922 L 1285.0391 37.794922 z M 1171.6543 75.589844 L 1209.4492 75.589844 L 1209.4492 113.38672 L 1171.6543 113.38672 L 1171.6543 75.589844 z M 1058.2676 113.38672 L 1058.2676 151.18164 L 1096.0625 151.18164 L 1096.0625 113.38672 L 1058.2676 113.38672 z "
       transform="matrix(0.26458333,0,0,0.26458333,-82.190506,122.32143)"
       id="rect889-3-3-1-7-8-77-03" />
  </g>
</svg>
